icons/1_Primary/SPID.svg

<svg width="1024" height="1024" viewBox="0 0 1024 1024" fill="none" xmlns="http://www.w3.org/2000/svg">
<g clip-path="url(#clip0_2_3525)">
<path d="M512 1024C794.77 1024 1024 794.77 1024 512C1024 229.23 794.77 0 512 0C229.23 0 0 229.23 0 512C0 794.77 229.23 1024 512 1024Z" fill="#728DBE"/>
<path d="M337.15 470.38C310.8 467.03 291.97 465.38 281.52 465.38C271.07 465.38 263.95 466.22 261.02 468.31C259.534 469.326 258.332 470.704 257.527 472.313C256.722 473.923 256.341 475.712 256.42 477.51C256.42 481.69 258.51 484.617 262.69 486.29C266.87 487.96 277.75 490.05 294.9 493.4C312.05 496.33 324.6 501.77 331.71 508.46C338.82 515.57 342.59 526.86 342.59 542.76C342.59 577.48 321.26 594.63 278.17 594.63C263.95 594.63 246.8 592.54 226.72 588.77L216.26 586.68L217.51 550.68C243.86 554.03 262.69 555.68 272.73 555.68C283.19 555.68 290.3 554.84 294.06 552.75C295.772 551.923 297.202 550.609 298.17 548.972C299.138 547.335 299.601 545.449 299.5 543.55C299.563 541.658 299.032 539.793 297.981 538.219C296.93 536.644 295.412 535.438 293.64 534.77C289.88 532.68 279.42 530.59 262.64 527.66C245.86 524.73 233.78 520.13 225.41 513.44C217.46 506.75 213.28 495.04 213.28 477.89C213.28 460.74 219.14 448.19 230.43 439.41C242.14 430.63 256.78 426.41 275.19 426.41C287.74 426.41 304.89 428.5 327.06 432.68L337.52 434.77L337.15 470.38ZM444.23 464.94C435.903 465.05 427.675 466.768 420 470L416.24 471.67V555.75C425.86 557 433.81 557.84 439.66 557.84C452.21 557.84 460.57 554.08 465.18 546.96C469.79 539.84 472.29 527.3 472.29 509.73C472.29 479.61 463.09 464.97 444.29 464.97M373.54 658.19V430.19H416.21V439C430.01 430.63 442.14 426.45 453.02 426.45C474.77 426.45 490.67 433.14 500.71 445.69C511.17 458.69 516.19 480.83 516.19 511.78C516.19 542.73 510.33 564.48 499.04 576.61C487.75 588.74 468.92 594.61 442.99 594.61C435.282 594.481 427.595 593.782 419.99 592.52L416.23 591.68V657.77H373.54V658.19ZM763 551.95L767.6 551.11V466.62C755.89 464.53 745.43 463.27 736.23 463.27C719.08 463.27 710.3 478.75 710.3 509.7C710.3 526.43 712.39 538.14 716.16 545.25C719.93 552.36 726.16 555.71 735.4 555.71C744.738 555.873 754.046 554.605 763 551.95ZM810.69 365.81V590.81H768V584.12C752.94 591.23 740 594.58 729.1 594.58C705.673 594.58 689.36 587.887 680.16 574.5C670.96 561.113 666.36 539.78 666.36 510.5C666.36 481.22 671.8 459.89 683.09 446.5C693.97 433.11 710.7 426.42 732.87 426.42C739.56 426.42 749.18 427.67 761.31 429.77L767.58 431.02V365.81H810.69ZM591.06 523.5C577.67 523.5 566.8 518.9 558.43 510.11C550.06 501.32 545.43 490.03 545.43 476.65C545.43 463.27 549.61 452.39 558.43 443.65C566.8 434.87 577.67 430.65 591.06 430.65C604.45 430.65 615.32 435.25 623.27 444.04C631.64 453.24 635.82 464.12 635.82 477.5C635.82 490.88 631.64 501.76 623.27 510.5C614.9 518.87 604.45 523.5 591.06 523.5ZM545.47 588.33C545.47 574.94 549.65 564.07 558.47 555.33C566.84 546.55 577.71 542.33 591.1 542.33C604.49 542.33 615.36 546.93 623.31 555.72C631.68 564.92 635.86 575.8 635.86 589.18" fill="white"/>
</g>
<defs>
<clipPath id="clip0_2_3525">
<rect width="1024" height="1024" fill="white"/>
</clipPath>
</defs>
</svg>

<svg xmlns="http://www.w3.org/2000/svg" width="1024" height="1024" fill="none">
   <g clip-path="url(#a)">
      <path fill="#728DBE" d="M512 1024c282.77 0 512-229.23 512-512S794.77 0 512 0 0 229.23 0 512s229.23 512 512 512Z"/>
      <path fill="#fff" d="M337.15 470.38c-26.35-3.35-45.18-5-55.63-5-10.45 0-17.57.84-20.5 2.93a10.588 10.588 0 0 0-4.6 9.2c0 4.18 2.09 7.107 6.27 8.78 4.18 1.67 15.06 3.76 32.21 7.11 17.15 2.93 29.7 8.37 36.81 15.06 7.11 7.11 10.88 18.4 10.88 34.3 0 34.72-21.33 51.87-64.42 51.87-14.22 0-31.37-2.09-51.45-5.86l-10.46-2.09 1.25-36c26.35 3.35 45.18 5 55.22 5 10.46 0 17.57-.84 21.33-2.93a9.652 9.652 0 0 0 5.44-9.2 9.058 9.058 0 0 0-5.86-8.78c-3.76-2.09-14.22-4.18-31-7.11-16.78-2.93-28.86-7.53-37.23-14.22-7.95-6.69-12.13-18.4-12.13-35.55s5.86-29.7 17.15-38.48c11.71-8.78 26.35-13 44.76-13 12.55 0 29.7 2.09 51.87 6.27l10.46 2.09-.37 35.61Zm107.08-5.44A64.634 64.634 0 0 0 420 470l-3.76 1.67v84.08c9.62 1.25 17.57 2.09 23.42 2.09 12.55 0 20.91-3.76 25.52-10.88 4.61-7.12 7.11-19.66 7.11-37.23 0-30.12-9.2-44.76-28-44.76m-70.75 193.22v-228h42.67V439c13.8-8.37 25.93-12.55 36.81-12.55 21.75 0 37.65 6.69 47.69 19.24 10.46 13 15.48 35.14 15.48 66.09 0 30.95-5.86 52.7-17.15 64.83-11.29 12.13-30.12 18-56.05 18a156.488 156.488 0 0 1-23-2.09l-3.76-.84v66.09h-42.69v.42ZM763 551.95l4.6-.84v-84.49c-11.71-2.09-22.17-3.35-31.37-3.35-17.15 0-25.93 15.48-25.93 46.43 0 16.73 2.09 28.44 5.86 35.55 3.77 7.11 10 10.46 19.24 10.46a91.472 91.472 0 0 0 27.6-3.76Zm47.69-186.14v225H768v-6.69c-15.06 7.11-28 10.46-38.9 10.46-23.427 0-39.74-6.693-48.94-20.08-9.2-13.387-13.8-34.72-13.8-64s5.44-50.61 16.73-64c10.88-13.39 27.61-20.08 49.78-20.08 6.69 0 16.31 1.25 28.44 3.35l6.27 1.25v-65.21h43.11ZM591.06 523.5c-13.39 0-24.26-4.6-32.63-13.39-8.37-8.79-13-20.08-13-33.46 0-13.38 4.18-24.26 13-33 8.37-8.78 19.24-13 32.63-13 13.39 0 24.26 4.6 32.21 13.39 8.37 9.2 12.55 20.08 12.55 33.46 0 13.38-4.18 24.26-12.55 33-8.37 8.37-18.82 13-32.21 13Zm-45.59 64.83c0-13.39 4.18-24.26 13-33 8.37-8.78 19.24-13 32.63-13 13.39 0 24.26 4.6 32.21 13.39 8.37 9.2 12.55 20.08 12.55 33.46"/>
   </g>
   <defs>
      <clipPath id="a">
         <path fill="#fff" d="M0 0h1024v1024H0z"/>
      </clipPath>
   </defs>
</svg>
